X:249
T: ES WOLLT EIN MAEDCHEN DIE LAEMMELEIN HUETEN
N: E0126B
O: Europa, Mitteleuropa, Deutschland, Unter - Lahnkreis, Kreis Limburg
R: erzaehlendes Volks - Lied, Schalk -, Schelmen - Lied, betrogene Liebe
M: 6/8
L: 1/8
K: A
A | e2ee2f | e2ec2
e | d3e2d | c3z2
A | e2ee2f | e2ec2
e | d3e2d | c3z2
A | fffagf | feee2
e | dddfed | dccc2
e | eeedde | c4z

@@@ Tune index: 3899
